X: 2
T: Mrs Ryan's
M: 2/4
L: 1/8
R: polka
K: D Major 
|: c/B/ |
Ad fd | Ad f>d | cd ef | gB c>B |
Ad fd | Ad c2- | cd ef | gc d :|
|: F/A/ |
de/d/ cc/B/ | AF FE/F/ | GE E/F/G/E/ | BA FD/F/ |
d/e/d/c/ dc/B/ | AF FE/F/ | GE BA | D2 D :|
